X:181
T:The Sack of Spuds
B:Terry "Cuz" Teahan "Sliabh Luachra on Parade" 1980
Z:Patrick Cavanagh
M:4/4
L:1/8
R:Reel
K:D
| A2eA Acec | ABcd e2dB | G2dB eBdB | GBdB GBdB | 
A2eA Acec | ABcd e2dB | ABcd edB/c/d | eage BAA2 :| 
| a2ea ageg | agbg agef | gedc BGG2 | g2ga bged | 
edeg a2ga | bgaa ged2 | dBde g2ge | dBGA BAA2 :|| 

